X:15
T:Sommervals
C:Ale M\"oller
%O:Sweden
R:Waltz
N:Efter Alke Steinholtz and Printed by Karen Myers
Z:Bob Wyttenbach, 8/4/02 from xerox copy (origin)
M:3/4
L:1/4
%Q:1/4=120
K:G %clef=bass middle=d
P:A
dc|"G"B>AG|"D"A2F|"C"G3|E>FE|"G"DGA|
"Am"c2B|(3B/c/B/ AG|"D7"Adc|"G"B>AG|"D"A2F|
"C"G3|E>FE|"G"DEG|"D7"G2F|"G"G3-|G:|
P:B
FG|"D"A>AA|AFD|"D7"c3|"G"B>A G/F/|"Am"EA/B/c|
"Bm"d>c B/A/|"Em"GFG|"D"A BA|"Em"G>AG|"Bm"F>GF|
"C"E>FE|"D"DGA|"G"B>AG|"D7"A{Bc}dF|"G"G3-|G:|
